X:1
T: East Indian
N:
C:
S:
A:
O:
R:
M:6/8
K:D
I:speed 150
%W: A1
% voice 1 (1 lines, 44 notes)
K:D
M:6/8
L:1/16
A2 |d2 e2 d2 d2 f2 g2 a2 f2 d2 e2 c2 A2 d2 e2 d2 d2 f2 g2 a2 f2 d2 e4 f2 |g4 g2 g2 a2 b2 a2 f2 d2 e2 c2 A2 B2 g2 f2 e2 a2 c2 d6 D4 A2 |
%W: A2
% voice 1 (1 lines, 44 notes)
d2 e2 d2 d2 f2 g2 a2 f2 d2 e2 c2 A2 d2 e2 d2 d2 f2 g2 a2 f2 d2 e4 f2 |g4 g2 g2 a2 b2 a2 f2 d2 e2 c2 A2 B2 g2 f2 e2 a2 c2 d6 D4 F G |
%W: B1
% voice 1 (1 lines, 44 notes)
A4 A2 A2 F2 D2 B2 G2 E2 A2 F2 D2 F2 G2 A2 B2 c2 d2 B2 e2 d2 c4 A2 |F2 A2 d2 G2 B2 e2 A2 c2 f2 B2 d2 g2 c2 e2 a2 g2 f2 e2 d6 D4 F G |
%W: B2
% voice 1 (1 lines, 42 notes)
A4 A2 A2 F2 D2 B2 G2 E2 A2 F2 D2 F2 G2 A2 B2 c2 d2 B2 e2 d2 c4 A2 |F2 A2 d2 G2 B2 e2 A2 c2 f2 B2 d2 g2 c2 e2 a2 g2 f2 e2 d6 D4 ||
